X:1
T:Sweeter as the Days Go By
T:Hampton Haygood Sewell
T:Sweeter as the Days Go By
T:Public Domain
T:Public Domain
C:Hampton Haygood Sewell
Z:Public Domain
%%score ( 1 2 ) ( 3 4 )
L:1/8
M:4/4
K:Bb
V:1 treble 
V:2 treble 
V:3 bass 
V:4 bass 
V:1
 [DF]>[Fd] [Ec]>[DB] [DA]2 [DG]2 | [EF]>[EG] [EA]>[EG] [EF]4 | [EF]>[Ge] [Fd]>[Ec] [EA]2 [EG]2 | %3
w: 1.~O the love of Je- sus|means so much to me,|Keeps my path- way shin- ing,|
w: 2.~Pre- cious, lov- ing Sav- ior,|all a- long the way,|Words of cheer and com- fort|
w: 3.~He, I know, will keep me,|He will hold me fast|Till my earth- ly tri- als|
 [EG]>[DF] [^C=E]>[CG] [DF]4 | [B,D]>[DF] [DB]>[Fd] [Ec]2 [DB]2 | [Fd]>[Fd] [_Ac]>[Ad] [Ge]4 | %6
w: keeps me pure and free;|More and more I praise Him,|for He seems to be|
w: I have heard Him say;|And He grows more pre- cious|to my soul each day,|
w: be for- ev- er past;|He will be, un- til I|see His face at last,|
 [=Ed]>[Ec] [EB]>[EG] [_EB]2 [Ec]2 | [DB]6 z2 ||"^Refrain" [Fd]>[DF] [DG]>[DF] [C=E]2 [Ed]2 | %9
w: Sweet- er as the days go|by.||
w: Sweet- er as the days go|by.|Sweet- er as the days go|
w: Sweet- er as the days go|by.||
 (F>G F>=E [_Ec]2) z2 | [Ec]>[EA] [EG]>[EF] [Ec]2 [Fd]2 | (D>D E>E [DF]2) z [DF] | %12
w: |||
w: by, * * * *|er as the mo- ments fly;|He’s * * * * al-|
w: |||
 [Fd]>[=E^c] [Fd]>[_E=c] | [DB]>[DB] [DF]>[FB] | [FA]>[EG] [E^F]>[EG] [Ge] [Ge]3 | %15
w: |||
w: * draw- ing near-|er, and to me|His love is dear- er, Sweet-|
w: |||
 [=Ed]>[Ec] [EB]>[EG] [_EB]2 [Ec]2 | [DB]6 z2 |] %17
w: ||
w: er as the days go by.||
w: ||
V:2
 x8 | x8 | x8 | x8 | x8 | x8 | x8 | x8 || x8 | c4- x4 | x8 | F4- x4 | x4 | x4 | x8 | x8 | x8 |] %17
w: |||||||||||||||||
w: |||||||||Sweet-||ways||||||
V:3
 [B,,B,]>[B,,B,] [B,,F,]>[B,,F,] [B,,B,]2 [B,,B,]2 | [F,A,]>[F,B,] [F,C]>[F,B,] [F,A,]4 | %2
w: ~ ~ ~ ~ ~ ~|~ ~ ~ ~ ~|
 [F,A,]>[F,A,] [F,A,]>[F,A,] [F,C]2 [F,A,]2 | [B,,B,]>[B,,B,] [B,,B,]>[B,,B,] [B,,B,]4 | %4
w: ~ ~ ~ ~ ~ ~|~ ~ ~ ~ ~|
 [B,,F,]>[B,,B,] [B,,F,]>[B,,F,] [B,,F,]2 [B,,F,]2 | [B,,B,]>[B,,B,] [B,,B,]>[B,,B,] [E,B,]4 | %6
w: ~ ~ ~ ~ ~ ~|~ ~ ~ ~ ~|
 [C,B,]>[C,B,] [C,G,]>[C,C] [F,C]2 [F,A,]2 | [B,,B,]6 z2 || %8
w: ~ ~ ~ ~ ~ ~|~|
 [B,,B,]>[B,,B,] [B,,B,]>[B,,B,] [C,G,]2 [C,B,]2 | A,>B, A,>G, [F,A,]2 z2 | %10
w: ~ ~ ~ ~ ~ ~|as the days go~by, ~|
 [F,A,]>[F,C] [F,B,]>[F,A,] [F,A,]2 [F,A,]2 | B,>B, A,>G, [B,,F,]2 z [B,,B,] | %12
w: * ~ ~ ~ ~ as|the mo- ments~fly; * * *|
 [B,,B,]>[B,,B,] [B,,B,]>[B,,F,] | [B,,F,]>[B,,F,] [B,,B,]>[D,B,] | %14
w: ||
 [E,B,]>[E,B,] [E,A,]>[E,B,] [C,C] [C,C]3 | [C,B,]>[C,B,] [C,G,]>[C,C] [F,C]2 [F,A,]2 | %16
w: ||
 [B,,B,]6 z2 |] %17
w: |
V:4
 x8 | x8 | x8 | x8 | x8 | x8 | x8 | x8 || x8 | F,4- x4 | x8 | B,,4- x4 | x4 | x4 | x8 | x8 | x8 |] %17
w: |||||||||~||||||||

